public/logos/9X.svg

<?xml version="1.0" encoding="UTF-8"?>
<svg xmlns="http://www.w3.org/2000/svg" xmlns:xlink="http://www.w3.org/1999/xlink" width="176pt" height="32.93pt" viewBox="0 0 176 32.93" version="1.1">
<defs>
<clipPath id="clip1">
  <path d="M 0 0 L 33 0 L 33 32.929688 L 0 32.929688 Z M 0 0 "/>
</clipPath>
<clipPath id="clip2">
  <path d="M 54 0 L 74 0 L 74 32.929688 L 54 32.929688 Z M 54 0 "/>
</clipPath>
<clipPath id="clip3">
  <path d="M 73 1 L 92 1 L 92 32.929688 L 73 32.929688 Z M 73 1 "/>
</clipPath>
<clipPath id="clip4">
  <path d="M 36 1 L 55 1 L 55 32.929688 L 36 32.929688 Z M 36 1 "/>
</clipPath>
</defs>
<g id="surface1">
<g clip-path="url(#clip1)" clip-rule="nonzero">
<path style=" stroke:none;fill-rule:nonzero;fill:rgb(55.886841%,57.044983%,58.320618%);fill-opacity:1;" d="M 4.527344 22.074219 C 5.140625 24.109375 7.992188 27.210938 9.699219 27.804688 C 9.234375 26.464844 8.78125 25.15625 8.324219 23.84375 C 7.089844 23.269531 5.886719 22.707031 4.527344 22.074219 Z M 10.367188 28.246094 C 13.300781 29.992188 17.945312 30.136719 20.078125 29.164062 C 19.273438 25.628906 18.425781 22.085938 17.539062 18.441406 C 14.78125 20.257812 12.128906 22.007812 9.464844 23.761719 C 9.773438 25.292969 10.070312 26.765625 10.367188 28.246094 Z M 4.148438 21.339844 C 5.570312 21.789062 7.003906 22.238281 8.511719 22.714844 C 10.542969 20.25 12.5625 17.796875 14.585938 15.339844 C 14.066406 14.996094 5.621094 11.976562 4.234375 11.628906 C 2.980469 13.757812 2.773438 18.398438 4.148438 21.339844 Z M 25.886719 7.320312 C 20.363281 1.171875 8.953125 1.914062 4.644531 10.597656 C 9.710938 10.824219 14.734375 10.894531 19.652344 11.089844 C 21.648438 9.539062 23.449219 7.917969 25.886719 7.320312 Z M 22.207031 13.910156 C 21.835938 18.875 21.46875 23.851562 21.09375 28.859375 C 24.453125 27.839844 28.242188 24.429688 29.398438 19.476562 C 30.453125 14.980469 28.832031 10.320312 26.507812 8.003906 C 26.183594 9.507812 25.816406 10.015625 22.207031 13.910156 Z M 16.390625 32.921875 C 7.585938 33.113281 -0.0117188 25.605469 0 16.535156 C 0.0117188 7.867188 6.804688 0.257812 16.4375 0 C 25.980469 0.25 32.90625 7.601562 32.917969 16.5 C 32.925781 26.253906 24.820312 33.179688 16.390625 32.921875 "/>
</g>
<path style=" stroke:none;fill-rule:nonzero;fill:rgb(18.721008%,26.765442%,47.242737%);fill-opacity:1;" d="M 161.972656 31.425781 C 161.3125 31.601562 157.164062 31.640625 156.078125 31.488281 C 156.078125 31.230469 156.046875 30.960938 156.082031 30.699219 C 156.285156 29.207031 156.5 27.714844 156.722656 26.226562 C 156.914062 24.933594 157.144531 23.644531 157.324219 22.347656 C 157.480469 21.246094 157.582031 20.132812 157.726562 19.027344 C 157.855469 18.03125 158.011719 17.042969 158.152344 16.050781 C 158.34375 14.726562 158.535156 13.402344 158.722656 12.078125 C 158.851562 11.167969 158.972656 10.257812 159.097656 9.34375 C 159.257812 8.183594 159.410156 7.027344 159.570312 5.867188 C 159.746094 4.566406 159.925781 3.269531 160.109375 1.972656 C 160.128906 1.839844 160.21875 1.71875 160.265625 1.609375 C 160.925781 1.472656 165.800781 1.453125 166.703125 1.589844 C 166.886719 2.773438 167.074219 3.980469 167.257812 5.1875 C 167.445312 6.425781 167.59375 7.671875 167.816406 8.90625 C 168.035156 10.09375 168.023438 11.324219 168.496094 12.476562 C 168.863281 10.652344 169.128906 8.828125 169.351562 6.992188 C 169.574219 5.179688 169.773438 3.359375 170.164062 1.523438 C 172.132812 1.484375 174.019531 1.496094 176 1.511719 C 174.59375 11.5625 173.203125 21.511719 171.800781 31.535156 C 169.679688 31.609375 167.621094 31.5625 165.566406 31.558594 C 165.152344 31.023438 165.253906 30.402344 165.136719 29.84375 C 164.953125 28.972656 164.867188 28.082031 164.738281 27.199219 C 164.578125 26.097656 164.429688 24.992188 164.257812 23.890625 C 164.105469 22.871094 163.933594 21.855469 163.761719 20.839844 C 163.746094 20.738281 163.6875 20.644531 163.652344 20.5625 C 163.582031 20.566406 163.550781 20.558594 163.527344 20.570312 C 163.503906 20.582031 163.476562 20.609375 163.472656 20.632812 C 162.972656 24.214844 162.476562 27.800781 161.972656 31.425781 "/>
<g clip-path="url(#clip2)" clip-rule="nonzero">
<path style=" stroke:none;fill-rule:nonzero;fill:rgb(18.721008%,26.765442%,47.242737%);fill-opacity:1;" d="M 63.121094 26.042969 C 63.730469 25.074219 64.039062 24.03125 64.246094 22.957031 C 64.535156 21.453125 64.808594 19.945312 65.050781 18.433594 C 65.210938 17.441406 65.308594 16.445312 65.429688 15.449219 C 65.558594 14.367188 65.632812 13.277344 65.824219 12.210938 C 66.09375 10.6875 66.136719 9.160156 66.113281 7.621094 C 66.105469 7.246094 66.023438 6.902344 65.722656 6.613281 C 65.203125 6.425781 64.703125 6.472656 64.207031 6.828125 C 63.320312 7.941406 62.980469 9.300781 62.71875 10.671875 C 62.433594 12.148438 62.21875 13.640625 61.992188 15.128906 C 61.710938 17 61.449219 18.875 61.191406 20.75 C 61.101562 21.386719 61.050781 22.023438 61 22.664062 C 60.945312 23.328125 60.863281 24 60.886719 24.664062 C 60.902344 25.238281 60.980469 25.835938 61.410156 26.3125 C 62 26.460938 62.570312 26.484375 63.121094 26.042969 Z M 73.046875 8.617188 C 72.914062 9.917969 72.785156 11.222656 72.648438 12.523438 C 72.53125 13.660156 72.433594 14.800781 72.277344 15.929688 C 72.050781 17.585938 71.796875 19.238281 71.511719 20.886719 C 71.300781 22.121094 71.046875 23.351562 70.773438 24.574219 C 70.367188 26.402344 69.644531 28.105469 68.457031 29.546875 C 67.511719 30.691406 66.234375 31.40625 64.765625 31.726562 C 63.421875 32.015625 62.058594 32.15625 60.6875 32.058594 C 59.605469 31.980469 58.53125 31.828125 57.503906 31.40625 C 55.738281 30.671875 54.800781 29.25 54.390625 27.496094 C 54.125 26.367188 54.054688 25.175781 54.039062 24.007812 C 54.027344 22.984375 54.199219 21.957031 54.304688 20.929688 C 54.414062 19.878906 54.539062 18.828125 54.671875 17.777344 C 54.789062 16.863281 54.914062 15.953125 55.050781 15.042969 C 55.195312 14.054688 55.351562 13.0625 55.511719 12.070312 C 55.917969 9.550781 56.503906 7.074219 57.800781 4.84375 C 58.894531 2.972656 60.523438 1.769531 62.683594 1.328125 C 63.890625 1.078125 65.109375 0.910156 66.339844 1.015625 C 67.28125 1.097656 68.242188 1.195312 69.140625 1.460938 C 70.933594 1.992188 72.089844 3.238281 72.585938 5.039062 C 72.90625 6.203125 73.019531 7.398438 73.046875 8.617188 "/>
</g>
<path style=" stroke:none;fill-rule:nonzero;fill:rgb(18.721008%,26.765442%,47.242737%);fill-opacity:1;" d="M 116.589844 13.128906 C 117.21875 9.324219 117.582031 5.445312 118.25 1.527344 C 120.394531 1.476562 122.507812 1.5 124.667969 1.515625 C 124.691406 1.761719 124.75 1.949219 124.726562 2.132812 C 124.464844 4.0625 124.1875 5.996094 123.921875 7.925781 C 123.683594 9.636719 123.453125 11.351562 123.210938 13.0625 C 123.074219 14.027344 122.898438 14.988281 122.765625 15.953125 C 122.621094 16.972656 122.515625 18 122.375 19.023438 C 122.175781 20.457031 121.953125 21.890625 121.753906 23.324219 C 121.558594 24.703125 121.386719 26.085938 121.199219 27.46875 C 121.019531 28.792969 120.839844 30.117188 120.65625 31.429688 C 120.0625 31.601562 115.238281 31.648438 114.035156 31.488281 C 114.316406 29.402344 114.570312 27.3125 114.886719 25.234375 C 115.203125 23.144531 115.589844 21.066406 115.722656 18.972656 C 115.011719 18.730469 113.964844 18.730469 113.191406 18.96875 C 112.605469 23.109375 112.015625 27.292969 111.410156 31.566406 C 109.191406 31.574219 107.027344 31.578125 104.902344 31.5625 C 104.835938 31.425781 104.796875 31.378906 104.792969 31.328125 C 104.78125 31.214844 104.773438 31.101562 104.789062 30.992188 C 106.175781 21.199219 107.5625 11.410156 108.945312 1.648438 C 109.597656 1.472656 114.429688 1.429688 115.605469 1.578125 C 115.070312 5.425781 114.539062 9.273438 114.007812 13.113281 C 114.660156 13.320312 115.796875 13.332031 116.589844 13.128906 "/>
<g clip-path="url(#clip3)" clip-rule="nonzero">
<path style=" stroke:none;fill-rule:nonzero;fill:rgb(18.721008%,26.765442%,47.242737%);fill-opacity:1;" d="M 76.292969 1.542969 C 78.5 1.542969 80.621094 1.542969 82.800781 1.542969 C 82.820312 1.734375 82.875 1.921875 82.851562 2.101562 C 82.636719 3.730469 82.421875 5.363281 82.1875 6.988281 C 81.941406 8.671875 81.664062 10.347656 81.421875 12.03125 C 81.21875 13.4375 81.046875 14.847656 80.859375 16.257812 C 80.722656 17.277344 80.582031 18.300781 80.441406 19.324219 C 80.246094 20.730469 80.03125 22.136719 79.851562 23.546875 C 79.761719 24.261719 79.722656 24.988281 79.679688 25.710938 C 79.667969 25.898438 79.71875 26.089844 79.75 26.335938 C 80.1875 26.335938 80.589844 26.335938 80.976562 26.335938 C 81.628906 25.582031 81.726562 24.667969 81.875 23.804688 C 82.203125 21.878906 82.457031 19.945312 82.726562 18.011719 C 83.023438 15.914062 83.296875 13.816406 83.59375 11.71875 C 83.917969 9.429688 84.253906 7.140625 84.582031 4.851562 C 84.710938 3.9375 84.8125 3.027344 84.945312 2.117188 C 84.972656 1.929688 85.066406 1.753906 85.140625 1.546875 C 87.285156 1.546875 89.402344 1.546875 91.550781 1.546875 C 91.734375 2.234375 91.441406 2.847656 91.378906 3.46875 C 91.269531 4.550781 91.09375 5.625 90.945312 6.699219 C 90.738281 8.191406 90.535156 9.679688 90.328125 11.171875 C 90.140625 12.496094 89.957031 13.820312 89.765625 15.144531 C 89.625 16.109375 89.46875 17.074219 89.339844 18.039062 C 89.191406 19.117188 89.0625 20.195312 88.921875 21.273438 C 88.660156 23.296875 88.386719 25.324219 87.699219 27.25 C 86.753906 29.898438 84.878906 31.496094 82.0625 31.890625 C 81.207031 32.007812 80.335938 32.085938 79.476562 32.050781 C 78.535156 32.011719 77.574219 31.921875 76.664062 31.683594 C 74.644531 31.152344 73.363281 29.738281 73.15625 27.394531 C 73.113281 26.949219 72.996094 26.503906 73.019531 26.066406 C 73.066406 25.175781 73.167969 24.289062 73.273438 23.40625 C 73.390625 22.378906 73.527344 21.359375 73.664062 20.335938 C 73.863281 18.84375 74.070312 17.355469 74.277344 15.863281 C 74.40625 14.925781 74.542969 13.988281 74.675781 13.050781 C 74.808594 12.109375 74.949219 11.175781 75.082031 10.234375 C 75.226562 9.214844 75.367188 8.195312 75.507812 7.171875 C 75.703125 5.738281 75.890625 4.300781 76.085938 2.863281 C 76.144531 2.453125 76.214844 2.042969 76.292969 1.542969 "/>
</g>
<path style=" stroke:none;fill-rule:nonzero;fill:rgb(18.721008%,26.765442%,47.242737%);fill-opacity:1;" d="M 148.621094 6.523438 C 148.332031 7.679688 148.253906 8.878906 148.136719 10.058594 C 148.015625 11.257812 147.738281 12.457031 147.808594 13.773438 C 148.160156 13.773438 148.4375 13.777344 148.707031 13.769531 C 149.722656 13.738281 150.191406 13.410156 150.492188 12.445312 C 150.675781 11.859375 150.839844 11.261719 150.90625 10.65625 C 151.035156 9.523438 151.101562 8.382812 151.167969 7.242188 C 151.183594 7.035156 151.085938 6.824219 151.023438 6.550781 C 150.230469 6.578125 149.519531 6.175781 148.621094 6.523438 Z M 152.855469 17.84375 C 152.839844 17.980469 152.800781 18.121094 152.8125 18.253906 C 152.902344 19.308594 152.996094 20.363281 153.097656 21.417969 C 153.15625 22.054688 153.242188 22.691406 153.296875 23.328125 C 153.367188 24.191406 153.40625 25.054688 153.488281 25.914062 C 153.5625 26.71875 153.6875 27.515625 153.761719 28.320312 C 153.847656 29.253906 153.902344 30.195312 153.972656 31.117188 C 153.199219 31.273438 148.460938 31.277344 147.726562 31.140625 C 147.699219 31.09375 147.648438 31.046875 147.648438 31 C 147.582031 29.632812 147.503906 28.269531 147.464844 26.902344 C 147.390625 24.554688 147.34375 22.207031 147.277344 19.859375 C 147.273438 19.65625 147.203125 19.453125 147.082031 19.25 C 146.585938 21.191406 146.410156 23.167969 146.117188 25.128906 C 145.820312 27.109375 145.605469 29.101562 145.355469 31.058594 C 144.710938 31.277344 141.171875 31.34375 139.316406 31.183594 C 139.988281 26.308594 140.660156 21.433594 141.34375 16.5625 C 142.023438 11.683594 142.71875 6.808594 143.414062 1.902344 C 143.710938 1.875 143.925781 1.839844 144.144531 1.839844 C 146.4375 1.835938 148.734375 1.84375 151.03125 1.84375 C 152.070312 1.839844 153.089844 1.988281 154.070312 2.34375 C 155.78125 2.964844 156.722656 4.03125 156.839844 6.214844 C 156.933594 7.898438 156.6875 9.550781 156.398438 11.207031 C 156.191406 12.363281 155.992188 13.511719 155.523438 14.601562 C 154.996094 15.832031 154.351562 16.953125 153.128906 17.628906 C 153.035156 17.679688 152.957031 17.761719 152.855469 17.84375 "/>
<g clip-path="url(#clip4)" clip-rule="nonzero">
<path style=" stroke:none;fill-rule:nonzero;fill:rgb(18.721008%,26.765442%,47.242737%);fill-opacity:1;" d="M 53.90625 8.992188 C 52.007812 9.214844 50.210938 9.59375 48.355469 9.722656 C 48.21875 9.148438 48.484375 8.710938 48.515625 8.25 C 48.539062 7.917969 48.613281 7.585938 48.597656 7.253906 C 48.582031 6.773438 48.339844 6.558594 47.855469 6.519531 C 47.144531 6.457031 46.542969 6.714844 46.253906 7.363281 C 45.691406 8.644531 45.570312 9.957031 46.378906 11.199219 C 46.824219 11.878906 47.371094 12.460938 47.992188 13 C 48.976562 13.859375 50.03125 14.648438 50.824219 15.730469 C 51.878906 17.171875 52.558594 18.71875 52.472656 20.546875 C 52.4375 21.300781 52.488281 22.058594 52.453125 22.8125 C 52.363281 24.945312 51.832031 26.960938 50.71875 28.789062 C 49.769531 30.34375 48.335938 31.285156 46.578125 31.703125 C 45.324219 32 44.042969 32.164062 42.753906 32.0625 C 41.664062 31.976562 40.5625 31.875 39.597656 31.320312 C 38.058594 30.433594 37.265625 29.027344 37.035156 27.296875 C 36.941406 26.609375 36.84375 25.90625 36.875 25.214844 C 36.925781 24.101562 37.078125 22.996094 37.191406 21.84375 C 37.457031 21.730469 37.671875 21.59375 37.902344 21.550781 C 39.683594 21.214844 41.46875 20.898438 43.3125 20.566406 C 43.300781 20.726562 43.300781 20.882812 43.273438 21.03125 C 43.046875 22.265625 42.835938 23.503906 42.875 24.769531 C 42.882812 24.992188 42.890625 25.214844 42.929688 25.433594 C 43.03125 26.003906 43.300781 26.429688 43.960938 26.507812 C 44.75 26.476562 45.222656 25.988281 45.453125 25.273438 C 45.910156 23.847656 46.070312 22.375 45.855469 20.890625 C 45.675781 19.65625 44.902344 18.769531 43.976562 18.003906 C 42.945312 17.144531 41.917969 16.28125 41.089844 15.21875 C 40.164062 14.035156 39.664062 12.675781 39.558594 11.199219 C 39.445312 9.578125 39.597656 7.972656 40.027344 6.382812 C 40.816406 3.4375 43.171875 1.433594 46.195312 1.164062 C 46.945312 1.097656 47.695312 1.03125 48.449219 1.007812 C 49.375 0.984375 50.292969 1.148438 51.164062 1.449219 C 52.675781 1.964844 53.644531 3.011719 53.96875 4.605469 C 54.210938 5.769531 54.21875 6.933594 54.003906 8.101562 C 53.953125 8.375 53.941406 8.652344 53.90625 8.992188 "/>
</g>
<path style=" stroke:none;fill-rule:nonzero;fill:rgb(18.721008%,26.765442%,47.242737%);fill-opacity:1;" d="M 136.03125 18.441406 C 134.554688 18.503906 133.105469 18.425781 131.605469 18.488281 C 131.253906 19.75 131.203125 21.003906 131.019531 22.234375 C 130.839844 23.46875 130.664062 24.707031 130.492188 25.910156 C 130.722656 26.273438 131.054688 26.199219 131.351562 26.199219 C 132.75 26.207031 134.148438 26.203125 135.550781 26.203125 C 135.824219 26.203125 136.101562 26.203125 136.355469 26.203125 C 136.519531 26.785156 136.335938 28.839844 135.90625 31.453125 C 135.289062 31.601562 124.082031 31.628906 123.117188 31.472656 C 123.558594 28.148438 123.996094 24.820312 124.449219 21.496094 C 124.898438 18.183594 125.445312 14.886719 125.839844 11.566406 C 126.238281 8.226562 126.808594 4.90625 127.308594 1.550781 C 131.515625 1.550781 135.640625 1.550781 139.867188 1.550781 C 139.625 3.386719 139.390625 5.164062 139.148438 7 C 137.15625 7 135.234375 7 133.269531 7 C 133.164062 7.238281 133.03125 7.429688 133.007812 7.636719 C 132.863281 8.714844 132.753906 9.796875 132.625 10.875 C 132.550781 11.507812 132.460938 12.136719 132.367188 12.855469 C 133.222656 13.007812 134.03125 12.914062 134.828125 12.929688 C 135.636719 12.945312 136.4375 12.933594 137.335938 12.933594 C 136.894531 14.796875 136.480469 16.550781 136.03125 18.441406 "/>
<path style=" stroke:none;fill-rule:nonzero;fill:rgb(18.721008%,26.765442%,47.242737%);fill-opacity:1;" d="M 99.335938 31.566406 C 97.113281 31.578125 94.96875 31.570312 92.757812 31.570312 C 93.894531 23.398438 95.023438 15.273438 96.15625 7.117188 C 95.414062 6.925781 94.714844 7.054688 94.027344 7.015625 C 93.363281 6.980469 92.695312 7.097656 92.019531 6.929688 C 92.25 5.132812 92.476562 3.371094 92.703125 1.625 C 93.386719 1.472656 106.796875 1.445312 107.746094 1.601562 C 107.617188 3.386719 107.363281 5.15625 107.035156 7.003906 C 105.613281 7.011719 104.230469 7.019531 102.785156 7.027344 C 101.632812 15.234375 100.488281 23.359375 99.335938 31.566406 "/>
</g>
</svg>

<svg xmlns="http://www.w3.org/2000/svg" width="176pt" height="43.907" viewBox="0 0 176 32.93"><defs><clipPath id="a"><path d="M0 0h33v32.93H0Zm0 0"/></clipPath><clipPath id="b"><path d="M54 0h20v32.93H54Zm0 0"/></clipPath><clipPath id="c"><path d="M73 1h19v31.93H73Zm0 0"/></clipPath><clipPath id="d"><path d="M36 1h19v31.93H36Zm0 0"/></clipPath></defs><g clip-path="url(#a)"><path d="M4.527 22.074c.614 2.035 3.465 5.137 5.172 5.73-.465-1.34-.918-2.648-1.375-3.96-1.234-.574-2.437-1.137-3.797-1.77m5.84 6.172c2.934 1.746 7.578 1.89 9.711.918a741 741 0 0 0-2.539-10.723c-2.758 1.817-5.41 3.567-8.074 5.32zM4.148 21.34c1.422.45 2.856.898 4.364 1.375l6.074-7.375c-.52-.344-8.965-3.363-10.352-3.711-1.254 2.129-1.46 6.77-.086 9.71M25.887 7.32C20.363 1.172 8.953 1.914 4.645 10.598c5.066.226 10.09.297 15.007.492 1.996-1.55 3.797-3.172 6.235-3.77m-3.68 6.59c-.371 4.965-.738 9.942-1.113 14.95 3.36-1.02 7.148-4.43 8.304-9.383 1.055-4.497-.566-9.157-2.89-11.473-.324 1.504-.692 2.012-4.301 5.906m-5.816 19.012C7.586 33.113-.012 25.605 0 16.535.012 7.867 6.805.258 16.438 0c9.542.25 16.468 7.602 16.48 16.5.008 9.754-8.098 16.68-16.527 16.422" style="stroke:none;fill-rule:nonzero;fill:#8f9195;fill-opacity:1"/></g><path d="M161.973 31.426c-.66.176-4.809.215-5.895.062 0-.258-.031-.527.004-.789q.306-2.239.64-4.472c.192-1.293.423-2.582.602-3.88.156-1.1.258-2.214.403-3.32.128-.996.285-1.984.425-2.976q.289-1.987.57-3.973c.13-.91.25-1.82.376-2.734.16-1.16.312-2.317.472-3.477q.264-1.95.54-3.894c.019-.133.109-.254.156-.364.66-.136 5.535-.156 6.437-.02.184 1.184.371 2.391.555 3.598.187 1.239.336 2.485.558 3.72.22 1.187.207 2.417.68 3.57.367-1.825.633-3.649.856-5.485.222-1.812.421-3.633.812-5.469 1.969-.039 3.856-.027 5.836-.011l-4.2 30.023c-2.12.074-4.179.027-6.234.024-.414-.536-.312-1.157-.43-1.715-.183-.871-.269-1.762-.398-2.645-.16-1.101-.308-2.207-.48-3.308-.153-1.02-.324-2.036-.496-3.051-.016-.102-.075-.195-.11-.277-.07.003-.101-.004-.125.007-.023.012-.05.04-.054.063-.5 3.582-.996 7.168-1.5 10.793" style="stroke:none;fill-rule:nonzero;fill:#304478;fill-opacity:1"/><g clip-path="url(#b)"><path d="M63.121 26.043c.61-.969.918-2.012 1.125-3.086.29-1.504.563-3.012.805-4.523.16-.993.258-1.989.379-2.985.129-1.082.203-2.172.394-3.238.27-1.524.313-3.05.29-4.59-.009-.375-.09-.719-.391-1.008-.52-.187-1.02-.14-1.516.215-.887 1.113-1.227 2.473-1.488 3.844-.285 1.476-.5 2.969-.727 4.457a452 452 0 0 0-.8 5.621c-.09.637-.141 1.273-.192 1.914-.055.664-.137 1.336-.113 2 .015.574.093 1.172.523 1.648.59.149 1.16.172 1.711-.269m9.926-17.426c-.133 1.301-.262 2.606-.399 3.906-.117 1.137-.214 2.278-.37 3.407a142 142 0 0 1-.766 4.957 74 74 0 0 1-.739 3.687c-.406 1.828-1.128 3.531-2.316 4.973-.945 1.144-2.223 1.86-3.691 2.18-1.344.289-2.707.43-4.079.332-1.082-.079-2.156-.23-3.183-.653-1.766-.734-2.703-2.156-3.113-3.91-.266-1.129-.336-2.32-.352-3.488-.012-1.024.16-2.051.266-3.078q.166-1.576.367-3.153.175-1.37.379-2.734c.144-.988.3-1.98.46-2.973.407-2.52.993-4.996 2.29-7.226 1.094-1.871 2.722-3.074 4.883-3.516 1.207-.25 2.425-.418 3.656-.312.941.082 1.902.18 2.8.445 1.794.531 2.95 1.777 3.446 3.578.32 1.164.434 2.36.46 3.578" style="stroke:none;fill-rule:nonzero;fill:#304478;fill-opacity:1"/></g><path d="M116.59 13.129c.629-3.805.992-7.684 1.66-11.602 2.145-.05 4.258-.027 6.418-.011.023.246.082.433.059.617-.262 1.93-.54 3.863-.805 5.793-.238 1.71-.469 3.426-.711 5.137-.137.964-.313 1.925-.445 2.89-.145 1.02-.25 2.047-.391 3.07-.2 1.434-.422 2.868-.621 4.301-.195 1.38-.367 2.762-.555 4.145-.18 1.324-.36 2.648-.543 3.96-.594.173-5.418.22-6.62.06.28-2.087.534-4.177.85-6.255.317-2.09.704-4.168.837-6.261-.711-.243-1.758-.243-2.532-.004-.586 4.14-1.175 8.324-1.78 12.597-2.22.008-4.384.012-6.509-.003-.066-.137-.105-.184-.109-.235a1.4 1.4 0 0 1-.004-.336l4.156-29.344c.653-.175 5.485-.218 6.66-.07q-.802 5.774-1.597 11.535c.652.207 1.789.219 2.582.016" style="stroke:none;fill-rule:nonzero;fill:#304478;fill-opacity:1"/><g clip-path="url(#c)"><path d="M76.293 1.543h6.508c.02.191.074.379.05.559-.214 1.628-.43 3.261-.663 4.886-.247 1.684-.524 3.36-.766 5.043-.203 1.406-.375 2.817-.563 4.227q-.205 1.53-.418 3.066c-.195 1.406-.41 2.813-.59 4.223-.09.715-.128 1.441-.171 2.164-.012.187.039.379.07.625h1.227c.652-.754.75-1.668.898-2.531.328-1.926.582-3.86.852-5.793.296-2.098.57-4.196.867-6.293.324-2.29.66-4.578.988-6.867.129-.915.23-1.825.363-2.735.028-.187.121-.363.196-.57h6.41c.183.687-.11 1.3-.172 1.922-.11 1.082-.285 2.156-.434 3.23-.207 1.492-.41 2.98-.617 4.473-.187 1.324-.371 2.648-.562 3.973-.141.964-.297 1.93-.426 2.894-.149 1.078-.278 2.156-.418 3.234-.262 2.024-.535 4.051-1.223 5.977-.945 2.648-2.82 4.246-5.636 4.64-.856.118-1.727.196-2.586.16-.942-.038-1.903-.128-2.813-.366-2.02-.532-3.3-1.946-3.508-4.29-.043-.445-.16-.89-.136-1.328.046-.89.148-1.777.253-2.66.118-1.027.254-2.047.391-3.07.2-1.492.406-2.98.613-4.473.13-.937.266-1.875.399-2.812.133-.942.273-1.875.406-2.817a723 723 0 0 0 .426-3.062c.195-1.434.383-2.871.578-4.309.059-.41.129-.82.207-1.32" style="stroke:none;fill-rule:nonzero;fill:#304478;fill-opacity:1"/></g><path d="M148.621 6.523c-.289 1.157-.367 2.356-.484 3.536-.121 1.199-.399 2.398-.328 3.714.351 0 .629.004.898-.003 1.016-.032 1.484-.36 1.785-1.325.184-.586.348-1.183.414-1.789.13-1.133.196-2.273.262-3.414.016-.207-.082-.418-.145-.691-.793.027-1.503-.375-2.402-.028m4.234 11.32c-.015.137-.054.278-.042.41q.133 1.583.285 3.165c.058.637.144 1.273.199 1.91.07.863.11 1.727.191 2.586.075.805.2 1.602.274 2.406.086.934.14 1.875.21 2.797-.773.156-5.511.16-6.245.024-.028-.047-.079-.094-.079-.141-.066-1.367-.144-2.73-.183-4.098-.074-2.347-.121-4.695-.188-7.043a1.24 1.24 0 0 0-.195-.609c-.496 1.941-.672 3.918-.965 5.879-.297 1.98-.512 3.973-.762 5.93-.644.218-4.183.285-6.039.125.672-4.875 1.344-9.75 2.028-14.622.68-4.878 1.375-9.753 2.07-14.66.297-.027.512-.062.73-.062 2.293-.004 4.59.004 6.887.004 1.04-.004 2.059.144 3.04.5 1.71.62 2.652 1.687 2.769 3.87.094 1.684-.153 3.337-.442 4.993-.207 1.156-.406 2.305-.875 3.395-.527 1.23-1.171 2.351-2.394 3.027-.094.05-.172.133-.274.215" style="stroke:none;fill-rule:nonzero;fill:#304478;fill-opacity:1"/><g clip-path="url(#d)"><path d="M53.906 8.992c-1.898.223-3.695.602-5.55.73-.137-.574.128-1.011.16-1.472.023-.332.097-.664.082-.996-.016-.48-.258-.695-.743-.734-.71-.063-1.312.195-1.601.843-.563 1.282-.684 2.594.125 3.836.445.68.992 1.262 1.613 1.801.985.86 2.04 1.648 2.832 2.73 1.055 1.442 1.735 2.989 1.649 4.817-.035.754.015 1.512-.02 2.265-.09 2.133-.621 4.149-1.734 5.977-.95 1.555-2.383 2.496-4.14 2.914-1.255.297-2.536.461-3.825.36-1.09-.086-2.191-.188-3.156-.743-1.54-.886-2.332-2.293-2.563-4.023-.094-.688-.191-1.39-.16-2.082.05-1.113.203-2.219.316-3.371.266-.114.48-.25.711-.293 1.782-.336 3.567-.653 5.41-.985-.011.16-.011.317-.039.465-.226 1.235-.437 2.473-.398 3.739.008.222.016.445.055.664.101.57.37.996 1.03 1.074.79-.031 1.263-.52 1.493-1.235.457-1.425.617-2.898.402-4.382-.18-1.235-.953-2.121-1.878-2.887-1.032-.86-2.059-1.723-2.887-2.785-.926-1.184-1.426-2.543-1.531-4.02-.114-1.62.039-3.226.468-4.816.79-2.945 3.145-4.95 6.168-5.219.75-.066 1.5-.133 2.254-.156a7.7 7.7 0 0 1 2.715.441c1.512.516 2.48 1.563 2.805 3.156a9 9 0 0 1 .035 3.497c-.05.273-.063.55-.098.89" style="stroke:none;fill-rule:nonzero;fill:#304478;fill-opacity:1"/></g><path d="M136.031 18.441c-1.476.063-2.926-.015-4.426.047-.351 1.262-.402 2.516-.585 3.746-.18 1.235-.356 2.473-.528 3.676.23.363.563.29.86.29 1.398.007 2.796.003 4.199.003h.804c.165.582-.02 2.637-.449 5.25-.617.149-11.824.176-12.789.02.442-3.325.88-6.653 1.332-9.977.45-3.312.996-6.61 1.39-9.93.4-3.34.97-6.66 1.47-10.015h12.558L139.148 7h-5.878c-.106.238-.239.43-.262.637-.145 1.078-.254 2.16-.383 3.238-.074.633-.164 1.262-.258 1.98.856.153 1.664.06 2.461.075.809.015 1.61.004 2.508.004-.441 1.863-.856 3.617-1.305 5.507M99.336 31.566c-2.223.012-4.367.004-6.578.004 1.137-8.172 2.265-16.297 3.398-24.453-.742-.191-1.441-.062-2.129-.101-.664-.036-1.332.082-2.007-.086.23-1.797.457-3.559.683-5.305.684-.152 14.094-.18 15.043-.023-.129 1.785-.383 3.554-.71 5.402l-4.25.023c-1.153 8.207-2.298 16.332-3.45 24.54" style="stroke:none;fill-rule:nonzero;fill:#304478;fill-opacity:1"/></svg>
